Catalina-dark/status/16/network-wired-symbolic.svg

<?xml version="1.0" encoding="UTF-8" standalone="no"?>
<svg
   xmlns:dc="http://purl.org/dc/elements/1.1/"
   xmlns:cc="http://creativecommons.org/ns#"
   xmlns:rdf="http://www.w3.org/1999/02/22-rdf-syntax-ns#"
   xmlns:svg="http://www.w3.org/2000/svg"
   xmlns="http://www.w3.org/2000/svg"
   xmlns:sodipodi="http://sodipodi.sourceforge.net/DTD/sodipodi-0.dtd"
   xmlns:inkscape="http://www.inkscape.org/namespaces/inkscape"
   version="1.1"
   width="24"
   height="24"
   viewBox="0 0 24 24"
   id="svg2"
   inkscape:version="0.91 r13725"
   sodipodi:docname="network-wired-symbolic.svg">
  <metadata
     id="metadata10">
    <rdf:RDF>
      <cc:Work
         rdf:about="">
        <dc:format>image/svg+xml</dc:format>
        <dc:type
           rdf:resource="http://purl.org/dc/dcmitype/StillImage" />
        <dc:title />
      </cc:Work>
    </rdf:RDF>
  </metadata>
  <defs
     id="defs8">
    <filter
       style="color-interpolation-filters:sRGB"
       id="filter7554">
      <feBlend
         mode="darken"
         in2="BackgroundImage"
         id="feBlend7556" />
    </filter>
    <linearGradient
       id="linearGradient3257">
      <stop
         id="stop3259"
         style="stop-color:#a50000;stop-opacity:1"
         offset="0" />
      <stop
         id="stop3261"
         style="stop-color:#e73800;stop-opacity:1"
         offset="1" />
    </linearGradient>
    <clipPath
       id="clipPath4210"
       clipPathUnits="userSpaceOnUse">
      <rect
         style="opacity:1;fill:#0000ff;fill-opacity:0.51376145;stroke:none;stroke-opacity:1"
         id="rect4212"
         width="34"
         height="34"
         x="-7"
         y="1024.3622" />
    </clipPath>
    <clipPath
       id="clipPath4160"
       clipPathUnits="userSpaceOnUse">
      <rect
         y="1028.3619"
         x="-6"
         height="32.000015"
         width="32"
         id="rect4162"
         style="opacity:1;fill:#aade87;fill-opacity:0.47247709;stroke:none;stroke-opacity:1" />
    </clipPath>
    <filter
       id="filter7554-5"
       style="color-interpolation-filters:sRGB">
      <feBlend
         id="feBlend7556-3"
         in2="BackgroundImage"
         mode="darken" />
    </filter>
    <clipPath
       clipPathUnits="userSpaceOnUse"
       id="clipPath4210-2">
      <rect
         y="1024.3622"
         x="-7"
         height="34"
         width="34"
         id="rect4212-9"
         style="opacity:1;fill:#0000ff;fill-opacity:0.51376145;stroke:none;stroke-opacity:1" />
    </clipPath>
    <clipPath
       clipPathUnits="userSpaceOnUse"
       id="clipPath4160-1">
      <rect
         style="opacity:1;fill:#aade87;fill-opacity:0.47247709;stroke:none;stroke-opacity:1"
         id="rect4162-2"
         width="32"
         height="32.000015"
         x="-6"
         y="1028.3619" />
    </clipPath>
  </defs>
  <sodipodi:namedview
     pagecolor="#ffffff"
     bordercolor="#666666"
     borderopacity="1"
     objecttolerance="10"
     gridtolerance="10"
     guidetolerance="10"
     inkscape:pageopacity="0"
     inkscape:pageshadow="2"
     inkscape:window-width="640"
     inkscape:window-height="480"
     id="namedview6"
     showgrid="false"
     inkscape:zoom="14.552084"
     inkscape:cx="1.2458309"
     inkscape:cy="3.8845305"
     inkscape:current-layer="svg2" />
  <g
     id="g3239"
     transform="translate(3.3556708e-6,-5.9587453e-7)">
    <g
       style="fill:#bebebe;fill-opacity:0.66666667"
       transform="matrix(0.01149582,0,0,0.01149582,-3.3254937,13.433491)"
       id="g3-9-0">
      <g
         style="fill:#bebebe;fill-opacity:0.66666667"
         id="g5-4-9" />
    </g>
    <g
       transform="matrix(0.70106994,0,0,0.70106994,1.4288367,11.579274)"
       id="text4361-3"
       style="font-style:normal;font-weight:normal;font-size:11.59667683px;line-height:125%;font-family:sans-serif;letter-spacing:0px;word-spacing:0px;fill:#bebebe;fill-opacity:0.66666667;stroke:none;stroke-width:1px;stroke-linecap:butt;stroke-linejoin:miter;stroke-opacity:1" />
    <path
       sodipodi:nodetypes="csccssccsccsscc"
       inkscape:connector-curvature="0"
       id="rect4356-6"
       d="m 7,11 c -0.8284271,0 -1,0.447715 -1,1 0,0.552285 0.1715729,1 1,1 0.052869,-3.06e-4 0.1056774,-0.0025 0.1582031,-0.0065 C 7.1971311,12.9949 7.2338491,13 7.2734375,13 l 9.4531245,0 c 0.03826,0 0.07369,-0.0052 0.111329,-0.0065 C 16.891711,12.9976 16.945827,12.9998 17,13 c 0.828427,0 1,-0.447715 1,-1 0,-0.552285 -0.171573,-1 -1,-1 -0.05287,3.06e-4 -0.105677,0.0025 -0.158203,0.0065 C 16.802869,11.005085 16.766151,11 16.726562,11 L 7.2734375,11 C 7.2351805,11 7.1997495,11.0052 7.1621094,11.0065 7.1082886,11.002383 7.0541729,11.000214 7,11 Z"
       style="opacity:1;fill:#bebebe;fill-opacity:0.66666667;stroke:none;stroke-width:2;stroke-miterlimit:4;stroke-dasharray:none;stroke-opacity:1" />
    <g
       inkscape:label="Capa 1"
       id="layer1"
       transform="matrix(0.65607521,0,0,0.75,-218.09736,-397.02165)"
       style="fill:#bebebe;fill-opacity:0.66666667">
      <g
         transform="matrix(0,-1.082475,-1.082475,0,1464.6747,557.15411)"
         id="layer1-9"
         inkscape:label="Capa 1"
         style="fill:#bebebe;fill-opacity:0.66666667">
        <g
           style="fill:#bebebe;fill-opacity:0.66666667"
           id="g3-0"
           transform="matrix(1.1827033e-4,0.03271224,-0.03271224,1.1827033e-4,18.268695,1034.3501)">
          <path
             style="fill:#bebebe;fill-opacity:0.66666667"
             d="M 345.441,248.292 151.154,442.573 c -12.359,12.365 -32.397,12.365 -44.75,0 -12.354,-12.354 -12.354,-32.391 0,-44.744 L 278.318,225.92 106.409,54.017 c -12.354,-12.359 -12.354,-32.394 0,-44.748 12.354,-12.359 32.391,-12.359 44.75,0 l 194.287,194.284 c 6.177,6.18 9.262,14.271 9.262,22.366 0,8.099 -3.091,16.196 -9.267,22.373 z"
             id="path5-6"
             inkscape:connector-curvature="0" />
        </g>
      </g>
    </g>
    <g
       transform="matrix(-0.65607521,0,0,-0.75,242.09736,421.02165)"
       id="g4290"
       inkscape:label="Capa 1"
       style="fill:#bebebe;fill-opacity:0.66666667">
      <g
         inkscape:label="Capa 1"
         id="g4292"
         transform="matrix(0,-1.082475,-1.082475,0,1464.6747,557.15411)"
         style="fill:#bebebe;fill-opacity:0.66666667">
        <g
           transform="matrix(1.1827033e-4,0.03271224,-0.03271224,1.1827033e-4,18.268695,1034.3501)"
           id="g4294-2"
           style="fill:#bebebe;fill-opacity:0.66666667">
          <path
             inkscape:connector-curvature="0"
             id="path4296-6"
             d="M 345.441,248.292 151.154,442.573 c -12.359,12.365 -32.397,12.365 -44.75,0 -12.354,-12.354 -12.354,-32.391 0,-44.744 L 278.318,225.92 106.409,54.017 c -12.354,-12.359 -12.354,-32.394 0,-44.748 12.354,-12.359 32.391,-12.359 44.75,0 l 194.287,194.284 c 6.177,6.18 9.262,14.271 9.262,22.366 0,8.099 -3.091,16.196 -9.267,22.373 z"
             style="fill:#bebebe;fill-opacity:0.66666667" />
        </g>
      </g>
    </g>
  </g>
</svg>

<svg width="24" height="24" version="1.1" viewBox="0 0 24 24" xmlns="http://www.w3.org/2000/svg">
<g transform="translate(3.3557e-6 -5.9587e-7)" fill="#bebebe" fill-opacity=".66667">
<g transform="matrix(.011496 0 0 .011496 -3.3255 13.433)"></g>
<path d="m7 11c-0.82843 0-1 0.44772-1 1s0.17157 1 1 1c0.052869-3.06e-4 0.10568-0.0025 0.1582-0.0065 0.038928 0.0014 0.075646 0.0065 0.11523 0.0065h9.4531c0.03826 0 0.07369-0.0052 0.11133-0.0065 0.05382 0.0041 0.10794 0.0063 0.16211 0.0065 0.82843 0 1-0.44772 1-1s-0.17157-1-1-1c-0.05287 3.06e-4 -0.10568 0.0025-0.1582 0.0065-0.038928-0.001415-0.075646-0.0065-0.11524-0.0065h-9.4531c-0.038257 0-0.073688 0.0052-0.11133 0.0065-0.053821-0.004117-0.10794-0.006286-0.16211-0.0065z"/>
<g transform="matrix(.65608 0 0 .75 -218.1 -397.02)">
<g transform="matrix(0 -1.0825 -1.0825 0 1464.7 557.15)" fill="#bebebe" fill-opacity=".66667">
<g transform="matrix(.00011827 .032712 -.032712 .00011827 18.269 1034.4)" fill="#bebebe" fill-opacity=".66667">
<path d="m345.44 248.29-194.29 194.28c-12.359 12.365-32.397 12.365-44.75 0-12.354-12.354-12.354-32.391 0-44.744l171.91-171.91-171.91-171.9c-12.354-12.359-12.354-32.394 0-44.748 12.354-12.359 32.391-12.359 44.75 0l194.29 194.28c6.177 6.18 9.262 14.271 9.262 22.366 0 8.099-3.091 16.196-9.267 22.373z" fill="#bebebe" fill-opacity=".66667"/>
</g>
</g>
</g>
<g transform="matrix(-.65608 0 0 -.75 242.1 421.02)">
<g transform="matrix(0 -1.0825 -1.0825 0 1464.7 557.15)" fill="#bebebe" fill-opacity=".66667">
<g transform="matrix(.00011827 .032712 -.032712 .00011827 18.269 1034.4)" fill="#bebebe" fill-opacity=".66667">
<path d="m345.44 248.29-194.29 194.28c-12.359 12.365-32.397 12.365-44.75 0-12.354-12.354-12.354-32.391 0-44.744l171.91-171.91-171.91-171.9c-12.354-12.359-12.354-32.394 0-44.748 12.354-12.359 32.391-12.359 44.75 0l194.29 194.28c6.177 6.18 9.262 14.271 9.262 22.366 0 8.099-3.091 16.196-9.267 22.373z" fill="#bebebe" fill-opacity=".66667"/>
</g>
</g>
</g>
</g>
</svg>
